static/assets/images/icons/binoculars.svg

<svg width="256" height="256" viewBox="0 0 256 256" fill="none" xmlns="http://www.w3.org/2000/svg">
<path fill-rule="evenodd" clip-rule="evenodd" d="M65.3066 50.4347C70.6368 45.027 77.756 42 87.2917 42C95.5495 42 102.491 45.2425 107.274 50.7823C111.953 56.2021 114.167 63.3379 114.167 70.6667V86.2582C117.952 85.5491 122.743 85 128.5 85C134.257 85 139.048 85.5491 142.833 86.2582V70.6667C142.833 63.3379 145.047 56.2021 149.726 50.7823C154.509 45.2425 161.451 42 169.708 42C179.244 42 186.363 45.027 191.693 50.4347C196.653 55.4662 199.553 62.0967 201.902 68.0266L202.187 68.7756L232.738 150.258C232.738 150.258 233.898 153.531 234.044 154.017C235.345 158.365 236.004 162.879 236 167.417C236 193.144 215.144 214 189.417 214C163.689 214 142.833 193.144 142.833 167.417V140.335L142.815 140.331C139.738 139.567 134.942 138.75 128.5 138.75C122.058 138.75 117.262 139.567 114.185 140.331L114.167 140.335V167.417C114.167 193.144 93.3108 214 67.5833 214C41.8559 214 21 193.144 21 167.417C21 162.759 21.6835 158.261 22.9561 154.017C23.0238 153.706 23.1137 153.397 23.2257 153.09C23.5506 152.139 23.8962 151.194 24.2622 150.258L55.0977 68.0266C57.4474 62.0967 60.3477 55.4662 65.3066 50.4347ZM157.167 167.374C157.189 149.582 171.62 135.167 189.417 135.167C203.021 135.167 214.658 143.59 219.396 155.506L220.004 157.167C221.109 160.471 221.67 163.933 221.667 167.417C221.667 185.228 207.228 199.667 189.417 199.667C171.612 199.667 157.177 185.237 157.167 167.435V167.417M67.5833 135.167C53.9797 135.167 42.3432 143.59 37.6043 155.505L36.996 157.168C35.8912 160.472 35.3296 163.933 35.3333 167.417C35.3333 185.228 49.7724 199.667 67.5833 199.667C85.3943 199.667 99.8333 185.228 99.8333 167.417C99.8333 149.606 85.3943 135.167 67.5833 135.167Z" fill="black"/>
</svg>

<svg xmlns="http://www.w3.org/2000/svg" fill="none" viewBox="0 0 256 256"><path fill="#000" fill-rule="evenodd" d="M65.307 50.435C70.637 45.027 77.756 42 87.292 42c8.257 0 15.199 3.242 19.982 8.782 4.679 5.42 6.893 12.556 6.893 19.885v15.591C117.952 85.55 122.743 85 128.5 85s10.548.55 14.333 1.258V70.667c0-7.33 2.214-14.465 6.893-19.885 4.783-5.54 11.725-8.782 19.982-8.782 9.536 0 16.655 3.027 21.985 8.435 4.96 5.031 7.86 11.662 10.209 17.592l.285.749 30.551 81.482s1.16 3.273 1.306 3.759a46.6 46.6 0 0 1 1.956 13.4C236 193.144 215.144 214 189.417 214c-25.728 0-46.584-20.856-46.584-46.583v-27.082l-.018-.004c-3.077-.764-7.873-1.581-14.315-1.581s-11.238.817-14.315 1.581l-.018.004v27.082c0 25.727-20.856 46.583-46.584 46.583C41.856 214 21 193.144 21 167.417c0-4.658.683-9.156 1.956-13.4q.102-.466.27-.927.487-1.427 1.036-2.832l30.836-82.231c2.35-5.93 5.25-12.56 10.209-17.592m91.86 116.939c.022-17.792 14.453-32.207 32.25-32.207 13.604 0 25.241 8.423 29.979 20.339l.608 1.661a32.2 32.2 0 0 1 1.663 10.25c0 17.811-14.439 32.25-32.25 32.25-17.805 0-32.24-14.43-32.25-32.232v-.018m-89.584-32.25c-13.603 0-25.24 8.423-29.979 20.338l-.608 1.663a32.2 32.2 0 0 0-1.663 10.249c0 17.811 14.44 32.25 32.25 32.25s32.25-14.439 32.25-32.25-14.439-32.25-32.25-32.25" clip-rule="evenodd"/></svg>
